X:1
T:Carradale, 88.87
T:Carradale, 88.87
T:William James Kirkpatrick, 1885
T:Public Domain Courtesy of the Cyber Hymnal™
C:William James Kirkpatrick, 1885
Z:Public Domain
Z:Courtesy of the Cyber Hymnal™
%%score ( 1 2 ) ( 3 4 )
L:1/8
Q:1/4=97
M:3/4
K:E
V:1 treble 
V:2 treble 
V:3 bass 
V:4 bass 
V:1
 E2 | [EG][EG] [EG]2 [EB]2 | [DB][DA] [DA]2 [EG]2 | [DF][DF] [DF]2 [Dc]2 | [Ec][EB] [EB]2 [EA]2 | %5
 [EG][GB] [Ge]2 [GB]2 | [Bd][Ac] [Ac]2 ([FA][CF]) | [B,E][B,E] [EG]2 [DF]2 | [DF]2 !fermata!E2 |] %9
V:2
 E2 | x6 | x6 | x6 | x6 | x6 | x6 | x6 | x2 E2 |] %9
V:3
 [E,G,]2 | [E,B,][E,B,] [E,B,]2 [G,B,]2 | [F,B,][F,B,] [F,B,]2 [E,B,]2 | %3
 [B,,B,][B,,B,] [B,,B,]2 [B,,A,]2 | [E,A,][E,G,] [E,G,]2 [E,C]2 | [E,B,][E,B,] [E,B,]2 [E,E]2 | %6
 [A,E][A,E] [A,E]2 (CA,) | [B,,G,][B,,G,] [B,,B,]2 [B,,A,]2 | [E,A,]2 !fermata![E,G,]2 |] %9
V:4
 x2 | x6 | x6 | x6 | x6 | x6 | x4 A,,2 | x6 | x4 |] %9

